X: 41152
T: Lady Mary Ramsays    Strathspey
C: By Nath. Gow
N: The title needs an apostrophy in "Ramsays".
%R: strathspey, air
B: Niel Gow & Sons "A Fourth Collection of Strathspey Reels, etc." v.4 p.15 #2
Z: 2022 John Chambers <jc:trillian.mit.edu>
M: C
L: 1/8
Q: "This tune may be played Slow"
K: Eb
% - - - - - - - - - -
% Voice 1 reformatted for _ _-bar lines, for compactness and proofreading.
V: 1 staves=2
G |\
[E3G,3]c B<GTG>c | ~B<Gc>A BGGe | [E3G,3]c B<GTG>B | c>EB>G F/F/F F :| e/f/ | ge-e>f f<d-d>f | ec-c>e BG-TGe/f/ |
ge-eg f>de>B | c<eB>G F/F/F Fe/f/ || ge-e>g fd-d>f | egc>e BG-G>B | .e.g.d.f .c.e.B.c | G<eB>G F/F/F F |]
% - - - - - - - - - -
% Voice 2 preserves the staff layout in the book.
V: 2 clef=bass middle=d
z |\
e2e2 e2e2 | e2a2 g2e2 | e2e2 e2g2 | a2ge b2B :| z | e2e2 b2b2 | c'2a2 g2e2 |
e2e2 b2g2 | a2e2 b2B2 || e2e2 b2=b2 | c'2a2 g2e2 | e2B2 A2G2 | E2e2 B2B |]


